source/icons/speed-icon.svg

<svg width="52" height="56" viewBox="0 0 52 56" fill="none" xmlns="http://www.w3.org/2000/svg">
<path fill-rule="evenodd" clip-rule="evenodd" d="M24 4H32V7H29V10.0213C32.8152 10.1846 36.3896 11.2772 39.5027 13.0786C41.354 11.1476 45.7551 13.2459 44.2635 16.7365C44.2309 16.704 44.1983 16.6716 44.1656 16.6393C48.3853 20.8089 51 26.5991 51 33C51 45.7025 40.7025 56 28 56C15.2975 56 5 45.7025 5 33C5 26.3297 7.83949 20.3226 12.3757 16.1215C12.1588 16.3222 11.9457 16.5272 11.7365 16.7364C9.70719 13.7075 14.3199 10.5817 16.4975 13.0784C19.6105 11.2771 23.1849 10.1846 27 10.0213V7H24V4Z" fill="#F0EBFF"/>
<path fill-rule="evenodd" clip-rule="evenodd" d="M27 1H21V2L23 2L25 2H27V1ZM25 3H27H28V2V1V0H27H21H20V1V2V3H21H23V6.02135C19.5463 6.1691 16.2898 7.07848 13.3944 8.58582L13.2544 8.42496C11.7163 6.6569 9.39521 6.98255 7.95484 8.02395C7.21517 8.55874 6.60253 9.33813 6.35204 10.2775C6.09438 11.2438 6.24251 12.3031 6.90574 13.293L7.02865 13.4765C3.28444 17.5676 1 23.017 1 29C1 41.7025 11.2975 52 24 52C36.7025 52 47 41.7025 47 29C47 23.0401 44.7331 17.6096 41.0145 13.5238L41.183 13.1295C41.6454 12.0474 41.6748 11.0021 41.3518 10.087C41.0339 9.1862 40.4018 8.48773 39.6665 8.02632C38.2591 7.14319 36.1326 6.97177 34.777 8.39054L34.5955 8.58053C31.7025 7.07636 28.4497 6.16892 25 6.02135V3ZM24 7C20.1406 7 16.5133 7.99379 13.36 9.73944L13 9.94732C11.5856 10.7639 10.2674 11.735 9.06924 12.8421C4.72198 16.8612 2 22.6127 2 29C2 41.1503 11.8497 51 24 51C36.1503 51 46 41.1503 46 29C46 22.9249 43.5376 17.4248 39.5563 13.4436C39.4319 13.3192 39.306 13.1963 39.1787 13.0749C37.9153 11.8707 36.5126 10.8207 35 9.94741L34.6357 9.7371C31.4835 7.99291 27.8577 7 24 7ZM12.4975 9.07845C11.0109 9.93867 9.62944 10.9605 8.37728 12.12C8.15986 12.3212 7.94622 12.5267 7.73652 12.7364C7.51811 12.4104 7.37664 12.0833 7.30079 11.7622C6.75443 9.44925 9.61277 7.44804 11.6466 8.42332C11.9539 8.57068 12.2424 8.78599 12.4975 9.07845ZM35.5027 9.07856C37.0672 9.98386 38.5152 11.0682 39.8186 12.3035C39.9688 12.4458 40.1171 12.5902 40.2635 12.7365C40.43 12.3468 40.523 11.9745 40.5544 11.6232C40.7632 9.28719 38.2441 7.88062 36.4507 8.48214C36.0978 8.60048 35.7731 8.79655 35.5027 9.07856ZM24 31C25.1046 31 26 30.1046 26 29C26 28.2049 25.536 27.5182 24.8641 27.1958L23.9501 27.0006C22.8686 27.0271 22 27.9121 22 29C22 30.1046 22.8954 31 24 31ZM23.3638 26.0676L22.0176 21.1316L21.9778 20.9855L22.0257 20.8419L23.5257 16.3419L24 14.9189L24.4743 16.3419L25.9743 20.8419L26.0222 20.9855L25.9824 21.1316L24.6362 26.0676C24.7657 26.0956 24.8921 26.1319 25.0148 26.176L32.5642 12.7549L33.4358 13.2451L25.8861 26.6669C26.5656 27.2169 27 28.0577 27 29C27 30.6569 25.6569 32 24 32C22.3431 32 21 30.6569 21 29C21 27.5614 22.0125 26.3594 23.3638 26.0676ZM23.0222 21.0145L24 24.5997L24.9778 21.0145L24 18.0811L23.0222 21.0145Z" fill="#7859CF"/>
</svg>

<svg viewBox="0 0 52 56" fill="none" xmlns="http://www.w3.org/2000/svg"><path fill-rule="evenodd" clip-rule="evenodd" d="M24 4h8v3h-3v3.02c3.82.16 7.39 1.26 10.5 3.06 1.85-1.93 6.26.17 4.76 3.66l-.1-.1a23 23 0 1 1-32.43.1c-2.02-3.03 2.59-6.16 4.77-3.66 3.11-1.8 6.68-2.9 10.5-3.06v-3.02h-3v-3Z" fill="#F0EBFF"/><path fill-rule="evenodd" clip-rule="evenodd" d="M27 1h-6v1h6v-1Zm-2 2h3v-3h-8v3h3v3.02a22.87 22.87 0 0 0-9.6 2.57l-.15-.17c-1.53-1.76-3.85-1.44-5.3-.4a4.14 4.14 0 0 0-1.6 2.26c-.26.96-.1 2.02.56 3.01l.12.19a23 23 0 1 0 33.99.05l.16-.4c.47-1.08.5-2.13.17-3.04-.32-.9-.95-1.6-1.68-2.06-1.41-.89-3.54-1.06-4.9.36l-.17.2a22.87 22.87 0 0 0-9.6-2.57v-3.02Zm-1 4c-3.86 0-7.49 1-10.64 2.74l-.36.2a22 22 0 1 0 22 0l-.36-.2a21.9 21.9 0 0 0-10.64-2.74Zm-11.5 2.08a23.08 23.08 0 0 0-4.76 3.66 2.98 2.98 0 0 1-.44-.98c-.55-2.31 2.31-4.31 4.35-3.34.3.15.6.37.85.66Zm23 0a23.08 23.08 0 0 1 4.76 3.66c.17-.4.26-.77.3-1.12.2-2.33-2.32-3.74-4.1-3.14-.36.12-.69.32-.96.6Zm-11.5 21.92a2 2 0 0 0 .86-3.8l-.91-.2a2 2 0 0 0 .05 4Zm-.64-4.93-1.34-4.94-.04-.14.05-.15 1.5-4.5.47-1.42.47 1.42 1.5 4.5.05.15-.04.14-1.34 4.94.37.1 7.55-13.42.88.5-7.55 13.42a3 3 0 1 1-2.53-.6Zm-.34-5.06.98 3.59.98-3.59-.98-2.93-.98 2.93Z" fill="#7859CF"/></svg>
